X: 042
T: Sugar Banks, Strathspey
C: attr. John French (1753-1803)
R: strathspey
B: "John French Collection", John French ed. p.4 #2
S: http://www.heallan.com/french.asp
Z: 2012 John Chambers <jc:trillian.mit.edu>
M: C
L: 1/8
K: Bb
F |\
D<FB>F B/c/d/c/ B>F | G<BTF>D EC-CE | D<FB>F B/c/d/c/ B>F |1G<BTF>E DB,-B, :|2 E<Ce>c dB- Bd/e/ ||
f>dBb f<Bd>B | FB {e}dc/B/ Ac cd/e/ | f>dBb f<dBD | EGCF B,B- Bd/e/ |
f>dBb f<Bd>B | FB {e}dc/B/ Ac cd/e/ | f>de<g f<de>c | B>F {A}GF/E/ DB,-B, |]

%%sep 2 1 500
%%sep 1 1 500

